X: 416
T: Bir Tatlı Ürperti
C: Fethi Karamahmutoğlu
O: Turkey
F: http://compmusic.upf.edu/node/140
N: nihavent--sarki--turkaksagi--bir_tatli_urperti--fethi_karamahmutoglu
N: makam= nihavent
N: form= sarki
N: usul= turkaksagi = 5/8
M: 5/8
L: 1/16
K: C _B _e  
Q: 1/4=200
%%MIDI tuningsystem comma53
e2e2 c6 | G2 c2e2 g2z2  | d2d2 B6 | ^g2 f2d2 B2z2  | \
w:  ARANAĞME  |   |   |   | 
A2B2 G6 | A2 B2c6  | 
w:   |   | 
d2d2 c2B2 A2 | G8z2  | e2e2 c6 | G2 c2e2 g2z2  | \
w:   |   |  ARANAĞME  |   | 
d2d2 B6 | ^g2 f2d2 B2z2  | 
w:   |   | 
A2B2 G6 | A2 B2c6  | d2d2 c2B2 A2 | G8z2  | \
w:   |   |   |   | 
G4 G4 ^F2 | A4A4G2  | B4 B4 A2 | 
w:  Bir  tat lı   |  ür per ti   |  bir  giz li   | 
c4c4z2  | c4 c4 B2 | d4d4c2  | e4 e4 d2 | f4f4z2  | \
w:  rüz gâr    |  Sev giy le   |  şef kat le   |  kay gıy la   |  ok şar    | 
f4 f4 e2 | g4g4z2  | 
w:  Öz lem  u  |  yut maz   | 
g2g2 g4 f2 | a4a4z2  | a2a2 a2g2 f2 | g2 g2g2 f2e2  | \
w:  ge ce ler  a  |  vut maz    |  Be ni  bu ra da   |  se ni  o ra da   | 
d8 z2 | e2 d2c2 B2A2  | 
w:  yâr    |  SAZ  | 
G4 G4 ^F2 | A4A4G2  | B4 B4 A2 | c4c4z2  | \
w:  Bir  tat lı   |  ür per ti   |  bir  giz li   |  rüz gâr    | 
c4 c4 B2 | d4d4c2  | e4 e4 d2 | 
w:  Sev giy le   |  şef kat le   |  kay gıy la   | 
f4f4z2  | f4 f4 e2 | g4g4z2  | g2g2 g4 f2 | \
w:  ok şar    |  Öz lem  u  |  yut maz   |  ge ce ler  a  | 
a4a4z2  | a2a2 a2g2 f2 | 
w:  vut maz    |  Be ni  bu ra da   | 
g2 g2g2 f2e2  | d8 z2 | G4d4z2  | d4 d4 c2 | \
w:  se ni  o ra da   |  yâr    |  SAZ  |  Ak şam la   | 
e2 e2d2 c2=B2  | c2d2 c6 | 
w:  gö nül_ e vi ne   |  bu yu rur    | 
c2 e2g4z2  | c4 c4 B2 | d2 d2c2 B2A2  | \
w:  SAZ  |  Ses siz ce   |  ya nı ba şı na   | 
B2c2 B6 | g2 d2B4z2  | B2B2 B2A2 G2 | 
w:  o tu rur    |  SAZ  |  İ ki  ya lan_ u  | 
c8z2  | c2c2 B4 A2 | e8z2  | d2d2 d2c2 B2 | \
w:  mut   |  o ya lar  du  |  rur    |  Be ni  bu ra da   | 
c2 c2c2 B2A2  | G8 z2 | B4d4z2  | 
w:  se ni  o ra da   |  yâr    |  SAZ  | 
d4 d4 c2 | e2 e2d2 c2=B2  | c2d2 c6 | c2 e2g4z2  | \
w:  Ak şam la   |  gö nül_ e vi ne   |  bu yu rur    |  SAZ  | 
c4 c4 B2 | d2 d2c2 B2A2  | 
w:  Ses siz ce   |  ya nı ba şı na   | 
B2c2 B6 | g2 d2B4z2  | B2B2 B2A2 G2 | c8z2  | \
w:  o tu rur    |  SAZ  |  İ ki  ya lan_ u  |  mut   | 
c2c2 B4 A2 | e8z2  | d2d2 d2c2 B2 | 
w:  o ya lar  du  |  rur    |  Be ni  bu ra da   | 
c2 c2c2 B2A2  | G8 z2 | B4d4z2  | g4 g4 g2 | \
w:  se ni  o ra da   |  yâr    |  SAZ  |  Bir  baş ka   | 
a4g4f2  | a4 a4 ^a2 | a4g4z2  | 
w:  ya rı na   |  kal mış  ni  |  yet ler    | 
b4 a4 g2 | a4g4f2  | g4 f4 =e2 | g4f4z2  | \
w:  Ar zuy la   |  tut kuy la   |  coş kuy la   |  bek ler    | 
e4 e4 d2 | f4e4z2  | d2d2 d4 e2 | 
w:  Bil mem  ne  |  den dir   |  u nu tur  sa  | 
d4c4z2  | a2a2 a2g2 f2 | g2 g2g2 f2e2  | \
w:  at ler    |  Be ni  bu ra da   |  se ni  o ra da   | 
d8 z2 | =B2 c2d2 =e2f2  | g4 g4 g2 | 
w:  yâr    |  SAZ  |  Bir  baş ka   | 
a4g4f2  | a4 a4 ^a2 | a4g4z2  | b4 a4 g2 | \
w:  ya rı na   |  kal mış  ni  |  yet ler    |  Ar zuy la   | 
a4g4f2  | g4 f4 =e2 | g4f4z2  | 
w:  tut kuy la   |  coş kuy la   |  bek ler    | 
e4 e4 d2 | f4e4z2  | d2d2 d4 e2 | d4c4z2  | \
w:  Bil mem  ne  |  den dir   |  u nu tur  sa  |  at ler    | 
a2a2 a2g2 f2 | g2 g2g2 f2e2  | 
w:  Be ni  bu ra da   |  se ni  o ra da   | 
d8 z2 | G4d4z2  | d4 d4 c2 | e2 e2d2 c2=B2  | \
w:  yâr    |  SAZ  |  Ak şam la   |  gö nül_ e vi ne   | 
c2d2 c6 | c2 e2g4z2  | c4 c4 B2 | 
w:  bu yu rur    |  SAZ  |  Ses siz ce   | 
d2 d2c2 B2A2  | B2c2 B6 | g2 d2B4z2  | B2B2 B2A2 G2 | \
w:  ya nı ba şı na   |  o tu rur    |  SAZ  |  İ ki  ya lan_ u  | 
c8z2  | c2c2 B4 A2 | 
w:  mut   |  o ya lar  du  | 
e8z2  | d2d2 d2c2 B2 | c2 c2c2 B2A2  | G8 z2 | |


